X: 13
T:Old Woman Tossed Up, Brackley
M:6/8
L:1/8
A:Brackley
P:A(AB)4A
K:G
P:A
D|G2G G2A|B2c dBG|A2A BAG|EFE E2D|
G2G G2A|B2c dBG|A2A BBG|E2F G2 ||
P:B
(3D/E/F/|GAG F2E|D3  DEF|GAG F2E|D3 D2D|
G2G G2A|B2c dBG|A2A BBG|E2F G2 ||
